coreui/free/cil-object-group.svg

<svg viewBox="0 0 512 512" xmlns="http://www.w3.org/2000/svg"><g><path d="M304 136H128v152h80v88h176V224h-80ZM160 256v-88h112v88H160Zm192 0v88H240v-56h64v-32Z"/><path d="M400 48H112V16H16v96h32v288H16v96h96v-32h288v32h96v-96h-32V112h32V16h-96ZM48 48h32v32H48Zm32 416H48v-32h32Zm384 0h-32v-32h32ZM432 48h32v32h-32Zm0 352h-32v32H112v-32H80V112h32V80h288v32h32Z"/></g></svg>

<svg xmlns="http://www.w3.org/2000/svg" viewBox="0 0 512 512">
  <path fill="var(--ci-primary-color, currentColor)" d="M304,136H128V288h80v88H384V224H304ZM160,256V168H272v88H160Zm192,0v88H240V288h64V256Z" class="ci-primary"/>
  <path fill="var(--ci-primary-color, currentColor)" d="M400,48H112V16H16v96H48V400H16v96h96V464H400v32h96V400H464V112h32V16H400ZM48,48H80V80H48ZM80,464H48V432H80Zm384,0H432V432h32ZM432,48h32V80H432Zm0,352H400v32H112V400H80V112h32V80H400v32h32Z" class="ci-primary"/>
</svg>
